X:25
T:goelcerth bach, y
R:rond
O:traditional welsh
Z:crm
M:2/4
L:1/4
Q:1/4=180
K:Bm
B2d>f|edec|B>dcB|AcFA|B/F/Bce|dfdB|c2BG|F3e/c/|
B2df|edec|BdcB|A2FG/A/|BGFe|d>ecf|dBcA B2z2||
FAcd-|dFAc|B>dGB|GBdG|c2B2|AGcB|d2c2|B2A2|
B2df|edec|BdcB|A2FG/A/|BGFe|d>ecf|dBcA B2z2:||
